packages/web/app/assets/images/double_down.svg

<svg fill="none" height="13" viewBox="0 0 12 13" width="12" xmlns="http://www.w3.org/2000/svg"><g fill="#326699"><path d="m1.41 0 4.59 4.43997 4.59-4.43997 1.41 1.36689-6 5.81656-6-5.81656z"/><path d="m1.41 5.81628 4.59 4.44002 4.59-4.44002 1.41 1.36689-6 5.81653-6-5.81653z"/></g></svg>

<svg width="12" height="13" viewBox="0 0 12 13" fill="none" xmlns="http://www.w3.org/2000/svg">
<path d="M1.41 0L6 4.43997L10.59 0L12 1.36689L6 7.18345L0 1.36689L1.41 0Z" fill="#326699"/>
<path d="M1.41 5.81628L6 10.2563L10.59 5.81628L12 7.18317L6 12.9997L0 7.18317L1.41 5.81628Z" fill="#326699"/>
</svg>
